X: 10921
M: 2/4
L: 1/16
K: F
(AB) |\
c2(AB) c2(AB) | c2(ag) f2c>c | .c2(ba) .g2(ag) | f2a2 c2(AB) |\
c2(AB) c2(AB) | c2(ag) f2c>c | c2(ba) g2(ag) | f2a2f2 H|]
cBAB cBAB | c2ag f2c>c | c2(ba) g2(ag) | f4- "^D.C."f2 |]
K: Bb
de |\
f6 (gf) | _e6 (fe) | d2g2f2d2 | cd_ed cde=e |\
f6 (gf) | e6 (fe) | d2f2 c2_e>d | B2df "^D.C."b2 |]


